X:1
T:When the night fall
T:From the album: Melody of the night II 2012 
T:Composer: Shi Jin
T:Arragement: David Marín Rivero
T:Trust
C:Shi Jin
Z:David Marín Rivero
%%score { 1 | 2 }
L:1/8
M:4/4
K:Db
V:1 treble nm="Piano" snm="Pno."
V:2 bass 
V:1
 Bfef efed | c8 | Bfef efed | B2 c2 dcBc | Bfef efed | c3 e f4 | Bfef efed | c2 d2 e2 f2 | %8
 b f2 f- f f2 f | c' f2 f- f f2 f | d' f2 f- f f2 f | f'fe'f d'f=af | b f2 f- f f2 f | %13
 c' f2 f- f f2 f | d' f2 f- f f2 f | f'fe'f d'f=af | bf'e'f' e'f'e'd' | c'3 d' f'4 | %18
 bf'e'd' c'2 b2 | a3 f f2 ef | gf g4 fg | fc' d'4 Bd | fefe f2 ed | c3 B c4 | Bfef efed | c3 e f4 | %26
 Bfef efed | c2 BB cdcd | Bfef efed | a3 e f4 | Bfef efed | c2 d2 e2 f2 | b f2 f- f f2 f | %33
 c' f2 f- f f2 f | d' f2 f- f f2 f | f'fe'f d'f=af | b f2 f- f f2 f | c' f2 f- f f2 f | %38
 d' f2 f- f f2 f | f'fe'f d'f=af | d'3 f' e'f'e'd' | c'3 b c'2 bc' | bafe f2 a2 | f3 e f2 ef | %44
 g3 f g2 fg | f2 c'd'- d'2 Bd | f2 ef e2 c2 | d B3- B4 | d'f'e'd' c'2 =a2 | b8 | Bfed c2 d2 | B8 | %52
"^rit." bf'e'f' e'2 d'2 | b8 | !arpeggio![bd'b']4 z4 |] %55
V:2
 B,,F,CD FD B,2 | A,,F,A,C FC A,2 | G,,D,A,B, DB, G,2 | A,,E,B,C EC A,2 | B,,F,CD FD B,2 | %5
 A,,F,A,C FC A,2 | G,,D,A,B, DB, G,2 | A,,E,B,C EC A,2 | B,,F,CD FD B,2 | A,,F,A,C FC A,2 | %10
 G,,D,A,B, DB, G,2 | F,,C,F,=A, CA, F,2 | B,,F,CD FD B,2 | A,,F,A,C FC A,2 | G,,D,A,B, DB, G,2 | %15
 F,,C,F,=A, CA, F,2 | B,,F,B,D FD B,2 | A,,F,A,C FC A,2 | G,,D, G,2 A,,E, A,2 | D,A,EF AF D2 | %20
 E,B,EG BG E2 | B,,F,B,D FD B,2 | G,,D,G,D, G,D, G,2 | A,,E,B,C EC A,2 | B,,F,B,D FD B,2 | %25
 A,,F,A,C FC B,2 | G,,D,A,B, DB, G,2 | A,,E,B,C EC A,2 | B,,F,CD FD B,2 | A,,F,A,C FC A,2 | %30
 G,,D,A,B, DB, G,2 | A,,E,B,C EC A,2 | B,,F,CD FD B,2 | A,,F,A,C FC A,2 | G,,D,A,B, DB, G,2 | %35
 F,,C,F,=A, CA, F,2 | B,,F,CD FD B,2 | A,,F,A,C FC A,2 | G,,D,A,B, DB, G,2 | F,,C,F,=A, CA, F,2 | %40
 B,,F,B,D FD B,2 | A,,F,A,C FC A,2 | G,,D, G,2 A,,E, A,2 | D,A,EF AF D2 | E,B,EG BG E2 | %45
 B,,F,B,D GD B,2 | G,,D, G,2 F,,C, F,2 | B,,F,CD FD B,2 | G,,D, A,2 F,,C, G,2 | B,,F,CD FF, B,2 | %50
 G,,D, G,2 F,,C, F,2 | B,,F,CD FF, B,2 | G,,D, G,2 A,,E, A,2 | B,,8- | B,,4 z4 |] %55

